build/images/SVG/1/square.svg

<!-- Generated by IcoMoon.io -->
<svg version="1.1" xmlns="http://www.w3.org/2000/svg" width="32" height="32" viewBox="0 0 32 32">
<title>square</title>
<path d="M23.5 4.571h-14.857q-1.179 0-2.018 0.839t-0.839 2.018v14.857q0 1.179 0.839 2.018t2.018 0.839h14.857q1.179 0 2.018-0.839t0.839-2.018v-14.857q0-1.179-0.839-2.018t-2.018-0.839zM28.643 7.429v14.857q0 2.125-1.509 3.634t-3.634 1.509h-14.857q-2.125 0-3.634-1.509t-1.509-3.634v-14.857q0-2.125 1.509-3.634t3.634-1.509h14.857q2.125 0 3.634 1.509t1.509 3.634z"></path>
</svg>

<svg xmlns="http://www.w3.org/2000/svg" width="32" height="32" viewBox="0 0 32 32"><title>square</title><path d="M23.5 4.571H8.643q-1.179 0-2.018.839t-.839 2.018v14.857q0 1.179.839 2.018t2.018.839H23.5q1.179 0 2.018-.839t.839-2.018V7.428q0-1.179-.839-2.018T23.5 4.571zm5.143 2.858v14.857q0 2.125-1.509 3.634T23.5 27.429H8.643q-2.125 0-3.634-1.509T3.5 22.286V7.429q0-2.125 1.509-3.634t3.634-1.509H23.5q2.125 0 3.634 1.509t1.509 3.634z"/></svg>
